src/shared/assets/tasks.svg

<svg width="24" height="24" viewBox="0 0 24 24" fill="none" xmlns="http://www.w3.org/2000/svg">
<g clip-path="url(#clip0_4_1914)">
<path d="M8.875 5.4375C8.875 5.44141 8.87891 5.46094 8.89844 5.49609C8.92188 5.54297 8.97656 5.61719 9.08203 5.71094C9.09766 5.72266 9.11328 5.73828 9.12891 5.75C8.39844 5.76562 7.6875 5.81641 7.00391 5.91016V5.4375C7.00391 4.73438 7.38281 4.17188 7.82812 3.76953C8.27344 3.36719 8.87109 3.04688 9.52734 2.79688C10.8438 2.29297 12.6055 2 14.5 2C16.3945 2 18.1562 2.29297 19.4727 2.79297C20.1289 3.04297 20.7266 3.36328 21.1719 3.76562C21.6172 4.16797 22 4.73438 22 5.4375V9.5V13.5625C22 14.2656 21.6211 14.8281 21.1758 15.2305C20.7305 15.6328 20.1328 15.9531 19.4766 16.2031C19.1016 16.3477 18.6914 16.4727 18.2539 16.5781V14.6406C18.4531 14.582 18.6367 14.5195 18.8086 14.4531C19.3398 14.25 19.707 14.0312 19.9219 13.8398C20.0273 13.7461 20.082 13.6719 20.1055 13.625C20.1289 13.582 20.1289 13.5664 20.1289 13.5664V11.8594C19.9219 11.9609 19.7031 12.0547 19.4766 12.1406C19.1016 12.2852 18.6914 12.4102 18.2539 12.5156V10.5781C18.4531 10.5195 18.6367 10.457 18.8086 10.3906C19.3398 10.1875 19.707 9.96875 19.9219 9.77734C20.0273 9.68359 20.082 9.60938 20.1055 9.5625C20.125 9.52734 20.1289 9.50781 20.1289 9.50391V7.79688C19.9219 7.89844 19.7031 7.99219 19.4766 8.07812C18.9414 8.28125 18.3281 8.45312 17.668 8.58203C17.4688 8.28906 17.2383 8.03906 17.0117 7.83594C16.6172 7.48047 16.1602 7.19141 15.6836 6.95312C16.9219 6.86328 18 6.63281 18.8086 6.32422C19.3398 6.12109 19.707 5.90234 19.9219 5.71094C20.0273 5.61719 20.082 5.54297 20.1055 5.49609C20.125 5.46094 20.1289 5.44141 20.1289 5.4375C20.1289 5.4375 20.1289 5.41797 20.1055 5.37891C20.082 5.33203 20.0273 5.25781 19.9219 5.16406C19.707 4.96875 19.3398 4.75 18.8086 4.55078C17.75 4.14453 16.2266 3.875 14.5 3.875C12.7734 3.875 11.25 4.14453 10.1953 4.54688C9.66406 4.75 9.29688 4.96875 9.08203 5.16016C8.97656 5.25391 8.92188 5.32812 8.89844 5.375C8.875 5.41797 8.875 5.43359 8.875 5.43359V5.4375ZM3.875 10.4375C3.875 10.4414 3.87891 10.4609 3.89844 10.4961C3.92188 10.543 3.97656 10.6172 4.08203 10.7109C4.29688 10.9062 4.66406 11.125 5.19531 11.3242C6.25 11.7266 7.77344 11.9961 9.5 11.9961C11.2266 11.9961 12.75 11.7266 13.8047 11.3242C14.3359 11.1211 14.7031 10.9023 14.918 10.7109C15.0234 10.6172 15.0781 10.543 15.1016 10.4961C15.1211 10.4609 15.125 10.4414 15.125 10.4375C15.125 10.4375 15.125 10.418 15.1016 10.3789C15.0781 10.332 15.0234 10.2578 14.918 10.1641C14.7031 9.96875 14.3359 9.75 13.8047 9.55078C12.75 9.14844 11.2266 8.87891 9.5 8.87891C7.77344 8.87891 6.25 9.14844 5.19531 9.55078C4.66406 9.75391 4.29688 9.97266 4.08203 10.1641C3.97656 10.2578 3.92188 10.332 3.89844 10.3789C3.875 10.4219 3.875 10.4375 3.875 10.4375ZM2 10.4375C2 9.73438 2.37891 9.17188 2.82422 8.76953C3.26953 8.36719 3.86719 8.04688 4.52344 7.79688C5.84375 7.29297 7.60547 7 9.5 7C11.3945 7 13.1562 7.29297 14.4727 7.79297C15.1289 8.04297 15.7266 8.36328 16.1719 8.76562C16.6172 9.16797 17 9.73438 17 10.4375V14.5V18.5625C17 19.2656 16.6211 19.8281 16.1758 20.2305C15.7305 20.6328 15.1328 20.9531 14.4766 21.2031C13.1562 21.707 11.3945 22 9.5 22C7.60547 22 5.84375 21.707 4.52734 21.207C3.87109 20.957 3.27734 20.6367 2.82812 20.2344C2.37891 19.832 2 19.2656 2 18.5625V14.5V10.4375ZM15.125 14.5V12.7969C14.918 12.8984 14.6992 12.9922 14.4727 13.0781C13.1562 13.582 11.3945 13.875 9.5 13.875C7.60547 13.875 5.84375 13.582 4.52734 13.082C4.30078 12.9961 4.08203 12.9023 3.875 12.8008V14.5C3.875 14.5039 3.87891 14.5234 3.89844 14.5586C3.92188 14.6055 3.97656 14.6797 4.08203 14.7734C4.29688 14.9688 4.66406 15.1875 5.19531 15.3867C6.25 15.7891 7.77344 16.0586 9.5 16.0586C11.2266 16.0586 12.75 15.7891 13.8047 15.3867C14.3359 15.1836 14.7031 14.9648 14.918 14.7734C15.0234 14.6797 15.0781 14.6055 15.1016 14.5586C15.1211 14.5234 15.125 14.5039 15.125 14.5ZM4.52734 17.1445C4.30078 17.0586 4.08203 16.9648 3.875 16.8633V18.5625C3.875 18.5625 3.875 18.582 3.89844 18.6211C3.92188 18.668 3.97656 18.7422 4.08203 18.8359C4.29688 19.0312 4.66406 19.25 5.19531 19.4492C6.25 19.8516 7.77344 20.1211 9.5 20.1211C11.2266 20.1211 12.75 19.8516 13.8047 19.4492C14.3359 19.2461 14.7031 19.0273 14.918 18.8359C15.0234 18.7422 15.0781 18.668 15.1016 18.6211C15.125 18.5781 15.125 18.5625 15.125 18.5625V16.8594C14.918 16.9609 14.6992 17.0547 14.4727 17.1406C13.1562 17.6445 11.3945 17.9375 9.5 17.9375C7.60547 17.9375 5.84375 17.6445 4.52734 17.1445Z" fill="#3E414F"/>
</g>
<defs>
<clipPath id="clip0_4_1914">
<rect width="20" height="20" fill="white" transform="translate(2 2)"/>
</clipPath>
</defs>
</svg>

<svg xmlns="http://www.w3.org/2000/svg" width="24" height="24" fill="currentColor" viewBox="0 0 24 24">
  <g clip-path="url(#a)">
    <path d="M8.875 5.438c0 .003.004.023.023.058a.794.794 0 0 0 .184.215l.047.039a18.6 18.6 0 0 0-2.125.16v-.473c0-.703.379-1.265.824-1.667.445-.403 1.043-.723 1.7-.973C10.843 2.293 12.604 2 14.5 2c1.895 0 3.656.293 4.973.793.656.25 1.254.57 1.699.973.445.402.828.968.828 1.671v8.126c0 .703-.379 1.265-.824 1.667-.445.403-1.043.723-1.7.973-.374.145-.785.27-1.222.375v-1.937c.2-.059.383-.121.555-.188.53-.203.898-.422 1.113-.613a.796.796 0 0 0 .183-.215c.024-.043.024-.059.024-.059V11.86a7.632 7.632 0 0 1-.652.282c-.375.144-.786.27-1.223.375v-1.938c.2-.058.383-.121.555-.187.53-.204.898-.422 1.113-.614a.797.797 0 0 0 .183-.214.168.168 0 0 0 .024-.06V7.798a7.623 7.623 0 0 1-.652.281 11.19 11.19 0 0 1-1.809.504c-.2-.293-.43-.543-.656-.746a5.954 5.954 0 0 0-1.328-.883c1.238-.09 2.316-.32 3.125-.629.53-.203.898-.422 1.113-.613a.797.797 0 0 0 .183-.215.167.167 0 0 0 .024-.059s0-.019-.024-.058a.797.797 0 0 0-.183-.215c-.215-.195-.582-.414-1.113-.613-1.059-.406-2.582-.676-4.309-.676-1.727 0-3.25.27-4.305.672-.53.203-.898.422-1.113.613a.794.794 0 0 0-.184.215c-.023.043-.023.059-.023.059v.003Zm-5 5c0 .003.004.023.023.058a.793.793 0 0 0 .184.215c.215.195.582.414 1.113.613 1.055.403 2.578.672 4.305.672 1.727 0 3.25-.27 4.305-.672.53-.203.898-.422 1.113-.613a.796.796 0 0 0 .184-.215.168.168 0 0 0 .023-.059s0-.019-.023-.058a.796.796 0 0 0-.184-.215c-.215-.195-.582-.414-1.113-.613-1.055-.403-2.578-.672-4.305-.672-1.727 0-3.25.27-4.305.672-.53.203-.898.422-1.113.613a.793.793 0 0 0-.184.215c-.023.043-.023.059-.023.059Zm-1.875 0c0-.704.379-1.266.824-1.668.446-.403 1.043-.723 1.7-.973C5.843 7.293 7.604 7 9.5 7s3.656.293 4.973.793c.656.25 1.254.57 1.699.973.445.402.828.968.828 1.671v8.126c0 .703-.379 1.265-.824 1.668-.445.402-1.043.722-1.7.972-1.32.504-3.082.797-4.976.797-1.895 0-3.656-.293-4.973-.793-.656-.25-1.25-.57-1.699-.973-.45-.402-.828-.968-.828-1.672v-8.125ZM15.125 14.5v-1.703a7.632 7.632 0 0 1-.652.281c-1.317.504-3.079.797-4.973.797-1.895 0-3.656-.293-4.973-.793a7.63 7.63 0 0 1-.652-.281V14.5c0 .004.004.023.023.059a.793.793 0 0 0 .184.214c.215.196.582.415 1.113.614 1.055.402 2.578.672 4.305.672 1.727 0 3.25-.27 4.305-.672.53-.203.898-.422 1.113-.614a.796.796 0 0 0 .184-.214.168.168 0 0 0 .023-.059ZM4.527 17.145a7.63 7.63 0 0 1-.652-.282v1.7s0 .019.023.058a.793.793 0 0 0 .184.215c.215.195.582.414 1.113.613 1.055.403 2.578.672 4.305.672 1.727 0 3.25-.27 4.305-.672.53-.203.898-.422 1.113-.613a.796.796 0 0 0 .184-.215c.023-.043.023-.058.023-.058v-1.704a7.632 7.632 0 0 1-.652.282c-1.317.504-3.079.797-4.973.797-1.895 0-3.656-.293-4.973-.793Z"/>
  </g>
  <defs>
    <clipPath id="a">
      <path d="M2 2h20v20H2z"/>
    </clipPath>
  </defs>
</svg>
